images/icon13.svg

<svg height="96" viewBox="0 0 95 96" width="95" xmlns="http://www.w3.org/2000/svg" xmlns:xlink="http://www.w3.org/1999/xlink"><mask id="a" fill="#fff"><path d="m.20527617.00437333h78.47842093v45.28917337h-78.47842093z" fill="none"/></mask><mask id="b" fill="#fff"><path d="m.00021158.09874133h6.49217094v6.32954667h-6.49217094z" fill="none"/></mask><g fill="none" fill-rule="evenodd"><g transform="translate(16.291759 .209067)"><path d="m11.4233163 24.9176533c-4.95734971 0-8.99051229 4.06656-8.99051229 9.06496s4.03316258 9.06496 8.99051229 9.06496h55.2713808c5.3824165 0 9.7615145-4.4151466 9.7615145-9.8421333 0-4.0561067-2.5262806-7.75232-6.2862918-9.1976533-.4692873-.1802667-.7608463-.65536-.7115479-1.1594667.0609354-.62336.0918263-1.2494933.0918263-1.8609067 0-10.3317333-8.3365145-18.73706663-18.5833964-18.73706663-8.4279176 0-15.8157016 5.73205333-17.9657907 13.93941333-.0812472.3099733-.2900779.57024-.5738084.7150933-.2839421.14464-.61549.1602134-.9112807.04288-1.1514253-.4571733-2.3631514-.6890666-3.6021714-.6890666-4.5820045 0-8.6219377 3.27104-9.6057907 7.7774933-.1125612.5147733-.564922.8814933-1.087951.8814933zm55.2713808 20.3758934h-55.2713808c-6.18557911 0-11.21804013-5.07392-11.21804013-11.3109334 0-6.2368 5.03246102-11.3109333 11.21804013-11.3109333h4.9368262c1.5161916-5.0683733 6.2374165-8.6589867 11.5536081-8.6589867 1.1129176 0 2.2080623.1525334 3.2693541.4544 2.7729844-8.57322663 10.7443096-14.46271997 19.7836971-14.46271997 11.4751113 0 20.8107127 9.41290667 20.8107127 20.98303997 0 .4132267-.0124833.8324267-.0374499 1.2526934 4.1852895 1.9643733 6.9436748 6.2683733 6.9436748 10.9653333 0 6.6653867-5.3781848 12.0881067-11.9890423 12.0881067z" fill="#172942" mask="url(#a)"/><path d="m36.3895913 19.636416 7.5248887 14.8635733 16.8268485 2.3831467-12.1754454 11.5697067 2.8736971 16.3370666-15.0499889-7.71328-15.0499889 7.71328 2.8736972-16.3370666-12.1754455-11.5697067 16.8268486-2.3831467z" fill="#5cd8ff"/></g><g transform="translate(0 19.835733)"><path d="m52.6813508.00974933 7.5248886 14.86357337 16.8268486 2.3831466-12.1754455 11.5697067 2.8736971 16.3370667-15.0499888-7.71328-15.0499889 7.71328 2.8736971-16.3370667-12.1754454-11.5697067 16.8268485-2.3831466z" stroke="#5cd8ff" stroke-linejoin="round" stroke-width=".6375"/><g fill="#172942"><path d="m10.5859198 50.8484907c-.3125055 0-.62585744-.1166934-.86536746-.3492267-.47711581-.46592-.47711581-1.22176 0-1.6866133l17.82783966-17.3787734c.4779621-.4650666 1.2525612-.4650666 1.7307349 0 .4771159.46592.4771159 1.2206934 0 1.6868267l-17.8278396 17.37856c-.23951.2325333-.5528619.3492267-.8653675.3492267"/><path d="m1.22395546 6.428288c-.3133519 0-.62585746-.11669333-.86536749-.34922667-.47817372-.46592-.47817372-1.22176 0-1.68661333l4.0454343-3.94410667c.47817372-.46613333 1.25277283-.46613333 1.72988864 0 .47796214.46592.47796214 1.22069334 0 1.68661334l-4.04458797 3.94410666c-.23951002.23253334-.55286192.34922667-.86536748.34922667" mask="url(#b)" transform="translate(0 53.546667)"/><path d="m19.3707751 61.9327573c-.3125056 0-.6258575-.1166933-.8653675-.3492266-.4771158-.46592-.4771158-1.22176 0-1.6866134l9.9155456-9.66464c.4771158-.46592 1.251715-.46592 1.7296771 0 .4781737.4648534.4781737 1.21984 0 1.68576l-9.9144878 9.6654934c-.23951.2325333-.5520156.3492266-.8653674.3492266"/><path d="m22.0216347 76.1595307c-.3125055 0-.6258574-.1169067-.8653674-.3492267-.4771159-.46592-.4771159-1.2206933 0-1.6868267l13.2073274-12.8738133c.4771158-.4661333 1.2527728-.4661333 1.7298886 0 .4779621.46592.4779621 1.2206933 0 1.6866133l-13.2064811 12.8740267c-.23951.23232-.5520156.3492267-.8653675.3492267"/><path d="m39.9277806 58.70464c-.3125055 0-.6258574-.1166933-.8653675-.3492267-.4771158-.46592-.4771158-1.22176 0-1.6866133l6.6036637-6.43712c.4781738-.46592 1.2527729-.46592 1.7296771 0 .4781737.4650667.4781737 1.2209067 0 1.6868267l-6.6026058 6.4369066c-.23951.2325334-.5520156.3492267-.8653675.3492267"/></g></g></g></svg>

<?xml version="1.0" encoding="UTF-8"?>
<svg width="95px" height="96px" viewBox="0 0 95 96" version="1.1" xmlns="http://www.w3.org/2000/svg" xmlns:xlink="http://www.w3.org/1999/xlink">
    <!-- Generator: Sketch 51.2 (57519) - http://www.bohemiancoding.com/sketch -->
    <title>Group 21@3x</title>
    <desc>Created with Sketch.</desc>
    <defs>
        <polygon id="path-1" points="0.205276169 0.00437333333 78.6836971 0.00437333333 78.6836971 45.2935467 0.205276169 45.2935467"></polygon>
        <polygon id="path-3" points="0.000211581292 0.0987413333 6.49238252 0.0987413333 6.49238252 6.428288 0.000211581292 6.428288"></polygon>
    </defs>
    <g id="Future-Project-Desktop" stroke="none" stroke-width="1" fill="none" fill-rule="evenodd">
        <g id="Future-Camp" transform="translate(-1095.000000, -1254.000000)">
            <g id="Group-21" transform="translate(1095.000000, 1254.000000)">
                <g id="Group-6" transform="translate(16.291759, 0.209067)">
                    <g id="Group-3">
                        <mask id="mask-2" fill="white">
                            <use xlink:href="#path-1"></use>
                        </mask>
                        <g id="Clip-2"></g>
                        <path d="M11.4233163,24.9176533 C6.46596659,24.9176533 2.43280401,28.9842133 2.43280401,33.9826133 C2.43280401,38.9810133 6.46596659,43.0475733 11.4233163,43.0475733 L66.6946971,43.0475733 C72.0771136,43.0475733 76.4562116,38.6324267 76.4562116,33.20544 C76.4562116,29.1493333 73.929931,25.45312 70.1699198,24.0077867 C69.7006325,23.82752 69.4090735,23.3524267 69.4583719,22.84832 C69.5193073,22.22496 69.5501982,21.5988267 69.5501982,20.9874133 C69.5501982,10.65568 61.2136837,2.25034667 50.9668018,2.25034667 C42.5388842,2.25034667 35.1511002,7.9824 33.0010111,16.18976 C32.9197639,16.4997333 32.7109332,16.76 32.4272027,16.9048533 C32.1432606,17.0494933 31.8117127,17.0650667 31.515922,16.9477333 C30.3644967,16.49056 29.1527706,16.2586667 27.9137506,16.2586667 C23.3317461,16.2586667 19.2918129,19.5297067 18.3079599,24.03616 C18.1953987,24.5509333 17.7430379,24.9176533 17.2200089,24.9176533 L11.4233163,24.9176533 Z M66.6946971,45.2935467 L11.4233163,45.2935467 C5.23773719,45.2935467 0.205276169,40.2196267 0.205276169,33.9826133 C0.205276169,27.7458133 5.23773719,22.67168 11.4233163,22.67168 L16.3601425,22.67168 C17.8763341,17.6033067 22.597559,14.0126933 27.9137506,14.0126933 C29.0266682,14.0126933 30.1218129,14.1652267 31.1831047,14.4670933 C33.9560891,5.89386667 41.9274143,0.00437333333 50.9668018,0.00437333333 C62.4419131,0.00437333333 71.7775145,9.41728 71.7775145,20.9874133 C71.7775145,21.40064 71.7650312,21.81984 71.7400646,22.2401067 C75.9253541,24.20448 78.6837394,28.50848 78.6837394,33.20544 C78.6837394,39.8708267 73.3055546,45.2935467 66.6946971,45.2935467 Z" id="Fill-1" fill="#172942" mask="url(#mask-2)"></path>
                    </g>
                    <polygon id="Fill-4" fill="#5CD8FF" points="36.3895913 19.636416 43.91448 34.4999893 60.7413285 36.883136 48.5658831 48.4528427 51.4395802 64.7899093 36.3895913 57.0766293 21.3396024 64.7899093 24.2132996 48.4528427 12.0378541 36.883136 28.8647027 34.4999893"></polygon>
                </g>
                <g id="Group-20" transform="translate(0.000000, 19.835733)">
                    <polygon id="Stroke-7" stroke="#5CD8FF" stroke-width="0.6375" stroke-linejoin="round" points="52.6813508 0.00974933333 60.2062394 14.8733227 77.033088 17.2564693 64.8576425 28.826176 67.7313396 45.1632427 52.6813508 37.4499627 37.6313619 45.1632427 40.505059 28.826176 28.3296136 17.2564693 45.1564621 14.8733227"></polygon>
                    <path d="M10.5859198,50.8484907 C10.2734143,50.8484907 9.96006236,50.7317973 9.72055234,50.499264 C9.24343653,50.033344 9.24343653,49.277504 9.72055234,48.8126507 L27.548392,31.4338773 C28.0263541,30.9688107 28.8009532,30.9688107 29.2791269,31.4338773 C29.7562428,31.8997973 29.7562428,32.6545707 29.2791269,33.120704 L11.4512873,50.499264 C11.2117773,50.7317973 10.8984254,50.8484907 10.5859198,50.8484907" id="Fill-9" fill="#172942"></path>
                    <g id="Group-13" transform="translate(0.000000, 53.546667)">
                        <mask id="mask-4" fill="white">
                            <use xlink:href="#path-3"></use>
                        </mask>
                        <g id="Clip-12"></g>
                        <path d="M1.22395546,6.428288 C0.910603563,6.428288 0.598097996,6.31159467 0.358587973,6.07906133 C-0.119585746,5.61314133 -0.119585746,4.85730133 0.358587973,4.392448 L4.40402227,0.448341333 C4.88219599,-0.017792 5.6567951,-0.017792 6.13391091,0.448341333 C6.61187305,0.914261333 6.61187305,1.66903467 6.13391091,2.13495467 L2.08932294,6.07906133 C1.84981292,6.31159467 1.53646102,6.428288 1.22395546,6.428288" id="Fill-11" fill="#172942" mask="url(#mask-4)"></path>
                    </g>
                    <path d="M19.3707751,61.9327573 C19.0582695,61.9327573 18.7449176,61.816064 18.5054076,61.5835307 C18.0282918,61.1176107 18.0282918,60.3617707 18.5054076,59.8969173 L28.4209532,50.2322773 C28.898069,49.7663573 29.6726682,49.7663573 30.1506303,50.2322773 C30.628804,50.6971307 30.628804,51.4521173 30.1506303,51.9180373 L20.2361425,61.5835307 C19.9966325,61.816064 19.6841269,61.9327573 19.3707751,61.9327573" id="Fill-14" fill="#172942"></path>
                    <path d="M22.0216347,76.1595307 C21.7091292,76.1595307 21.3957773,76.042624 21.1562673,75.810304 C20.6791514,75.344384 20.6791514,74.5896107 21.1562673,74.1234773 L34.3635947,61.249664 C34.8407105,60.7835307 35.6163675,60.7835307 36.0934833,61.249664 C36.5714454,61.715584 36.5714454,62.4703573 36.0934833,62.9362773 L22.8870022,75.810304 C22.6474922,76.042624 22.3349866,76.1595307 22.0216347,76.1595307" id="Fill-16" fill="#172942"></path>
                    <path d="M39.9277806,58.70464 C39.6152751,58.70464 39.3019232,58.5879467 39.0624131,58.3554133 C38.5852973,57.8894933 38.5852973,57.1336533 39.0624131,56.6688 L45.6660768,50.23168 C46.1442506,49.76576 46.9188497,49.76576 47.3957539,50.23168 C47.8739276,50.6967467 47.8739276,51.4525867 47.3957539,51.9185067 L40.7931481,58.3554133 C40.5536381,58.5879467 40.2411325,58.70464 39.9277806,58.70464" id="Fill-18" fill="#172942"></path>
                </g>
            </g>
        </g>
    </g>
</svg>
